X: 02104
T: PRISSY'S POLKA
T: "I BELIEVE IN LIVIN', LIVIN'!"
C: Bob McQuillen June'75
B: Bob's Note Book 1&2 #104
R: polka, march
Z: 2019 John Chambers <jc:trillian.mit.edu>
M: C
L: 1/8
K: G
|: G2B2 d3B | G2A2 B2G2 | A2B2 c3A  | B2c2 d4 |\
|  G2B2 d3B | G2A2 B2G2 | c2e2 dcBA | G2F2 G4 :|
|: A2B2 c3B | A2G2 FGA2 | B2c2 d3g  | f2e2 d4 |\
|  e2g2 d3e | d2c2 Bcd2 | e2g2 fedc | B2A2 G4 :|
%%begintext align
%% For Priscilla J. McQuillen,
%% with love always.
%%endtext

%%sep 1 1 500

%%sep 1 1 500

